app/img/svg/viberite-udachniy-sposob-oplaty.svg

<?xml version="1.0" encoding="UTF-8"?>
<svg width="192px" height="193px" viewBox="0 0 192 193" version="1.1" xmlns="http://www.w3.org/2000/svg" xmlns:xlink="http://www.w3.org/1999/xlink">
    <!-- Generator: sketchtool 41 (35326) - http://www.bohemiancoding.com/sketch -->
    <title>FAC7C642-1F87-45C9-96A8-85DA860E87CD</title>
    <desc>Created with sketchtool.</desc>
    <defs>
        <rect id="path-1" x="0" y="0" width="1280" height="608"></rect>
        <mask id="mask-2" maskContentUnits="userSpaceOnUse" maskUnits="objectBoundingBox" x="0" y="0" width="1280" height="608" fill="white">
            <use xlink:href="#path-1"></use>
        </mask>
        <polygon id="path-3" points="0 192 192 192 192 0 0 0"></polygon>
    </defs>
    <g id="Landing-64" stroke="none" stroke-width="1" fill="none" fill-rule="evenodd">
        <g id="Desktop-1248-13" transform="translate(-928.000000, -2080.000000)">
            <g id="Group-4" transform="translate(0.000000, 1952.000000)" stroke="#142E99" stroke-width="24" fill="#FFFFFF">
                <use id="Rectangle-Copy-4" mask="url(#mask-2)" xlink:href="#path-1"></use>
            </g>
            <g id="viberite-udachniy-sposob-oplaty" transform="translate(928.000000, 2080.000000)">
                <polygon id="Fill-1" fill="#FFFFFF" points="15.023 92.785 132.356 92.785 132.356 39.452 15.023 39.452"></polygon>
                <path d="M16.022,91.784 L131.355,91.784 L131.355,40.451 L16.022,40.451 L16.022,91.784 Z M14.022,93.784 L133.355,93.784 L133.355,38.451 L14.022,38.451 L14.022,93.784 Z" id="Fill-2" fill="#132E99"></path>
                <path d="M89.6886,82.1181 L121.6886,82.1181 L89.6886,82.1181 Z" id="Fill-3" fill="#FFFFFF"></path>
                <polygon id="Fill-4" fill="#132E99" points="89.689 83.118 121.689 83.118 121.689 81.118 89.689 81.118"></polygon>
                <g id="Group-33">
                    <path d="M89.689,66.1179 C89.689,74.9549 82.526,82.1179 73.689,82.1179 C64.852,82.1179 57.689,74.9549 57.689,66.1179 C57.689,57.2809 64.852,50.1179 73.689,50.1179 C82.526,50.1179 89.689,57.2809 89.689,66.1179 L89.689,66.1179 Z" id="Fill-5" fill="#FFFFFF"></path>
                    <path d="M73.689,51.1181 C65.418,51.1181 58.689,57.8471 58.689,66.1181 C58.689,74.3891 65.418,81.1181 73.689,81.1181 C81.96,81.1181 88.689,74.3891 88.689,66.1181 C88.689,57.8471 81.96,51.1181 73.689,51.1181 M73.689,83.1181 C64.315,83.1181 56.689,75.4921 56.689,66.1181 C56.689,56.7441 64.315,49.1181 73.689,49.1181 C83.063,49.1181 90.689,56.7441 90.689,66.1181 C90.689,75.4921 83.063,83.1181 73.689,83.1181" id="Fill-7" fill="#132E99"></path>
                    <path d="M172.3557,135.4512 L103.0227,135.4512 C98.6227,135.4512 95.0227,131.8512 95.0227,127.4512 L95.0227,79.4512 C95.0227,75.0512 98.6227,71.4512 103.0227,71.4512 L172.3557,71.4512 C176.7557,71.4512 180.3557,75.0512 180.3557,79.4512 L180.3557,127.4512 C180.3557,131.8512 176.7557,135.4512 172.3557,135.4512" id="Fill-9" fill="#FFFFFF"></path>
                    <path d="M103.0225,72.4511 C99.1625,72.4511 96.0225,75.5921 96.0225,79.4511 L96.0225,127.4511 C96.0225,131.3101 99.1625,134.4511 103.0225,134.4511 L172.3555,134.4511 C176.2155,134.4511 179.3555,131.3101 179.3555,127.4511 L179.3555,79.4511 C179.3555,75.5921 176.2155,72.4511 172.3555,72.4511 L103.0225,72.4511 Z M172.3555,136.4511 L103.0225,136.4511 C98.0605,136.4511 94.0225,132.4141 94.0225,127.4511 L94.0225,79.4511 C94.0225,74.4881 98.0605,70.4511 103.0225,70.4511 L172.3555,70.4511 C177.3175,70.4511 181.3555,74.4881 181.3555,79.4511 L181.3555,127.4511 C181.3555,132.4141 177.3175,136.4511 172.3555,136.4511 L172.3555,136.4511 Z" id="Fill-11" fill="#132E99"></path>
                    <path d="M153.689,119.4512 C153.689,125.3422 148.913,130.1182 143.022,130.1182 C137.131,130.1182 132.356,125.3422 132.356,119.4512 C132.356,113.5602 137.131,108.7842 143.022,108.7842 C148.913,108.7842 153.689,113.5602 153.689,119.4512" id="Fill-13" fill="#FFFFFF"></path>
                    <path d="M143.0225,109.7841 C137.6915,109.7841 133.3555,114.1211 133.3555,119.4511 C133.3555,124.7811 137.6915,129.1181 143.0225,129.1181 C148.3525,129.1181 152.6895,124.7811 152.6895,119.4511 C152.6895,114.1211 148.3525,109.7841 143.0225,109.7841 M143.0225,131.1181 C136.5895,131.1181 131.3555,125.8851 131.3555,119.4511 C131.3555,113.0171 136.5895,107.7841 143.0225,107.7841 C149.4555,107.7841 154.6895,113.0171 154.6895,119.4511 C154.6895,125.8851 149.4555,131.1181 143.0225,131.1181" id="Fill-15" fill="#132E99"></path>
                    <path d="M169.689,119.4512 C169.689,125.3422 164.913,130.1182 159.022,130.1182 C153.131,130.1182 148.356,125.3422 148.356,119.4512 C148.356,113.5602 153.131,108.7842 159.022,108.7842 C164.913,108.7842 169.689,113.5602 169.689,119.4512" id="Fill-17" fill="#FFFFFF"></path>
                    <path d="M159.0225,109.7841 C153.6915,109.7841 149.3555,114.1211 149.3555,119.4511 C149.3555,124.7811 153.6915,129.1181 159.0225,129.1181 C164.3525,129.1181 168.6895,124.7811 168.6895,119.4511 C168.6895,114.1211 164.3525,109.7841 159.0225,109.7841 M159.0225,131.1181 C152.5895,131.1181 147.3555,125.8851 147.3555,119.4511 C147.3555,113.0171 152.5895,107.7841 159.0225,107.7841 C165.4555,107.7841 170.6895,113.0171 170.6895,119.4511 C170.6895,125.8851 165.4555,131.1181 159.0225,131.1181" id="Fill-19" fill="#132E99"></path>
                    <mask id="mask-4" fill="white">
                        <use xlink:href="#path-3"></use>
                    </mask>
                    <g id="Clip-22"></g>
                    <polygon id="Fill-21" fill="#FFFFFF" mask="url(#mask-4)" points="95.023 98.118 180.356 98.118 180.356 87.451 95.023 87.451"></polygon>
                    <path d="M96.022,97.118 L179.355,97.118 L179.355,88.451 L96.022,88.451 L96.022,97.118 Z M94.022,99.118 L181.355,99.118 L181.355,86.451 L94.022,86.451 L94.022,99.118 Z" id="Fill-23" fill="#132E99" mask="url(#mask-4)"></path>
                    <path d="M25.689,50.1179 L57.689,50.1179" id="Fill-24" fill="#FFFFFF" mask="url(#mask-4)"></path>
                    <polygon id="Fill-25" fill="#132E99" mask="url(#mask-4)" points="25.689 51.118 57.689 51.118 57.689 49.118 25.689 49.118"></polygon>
                    <path d="M89.689,50.1179 L121.689,50.1179" id="Fill-26" fill="#FFFFFF" mask="url(#mask-4)"></path>
                    <polygon id="Fill-27" fill="#132E99" mask="url(#mask-4)" points="89.689 51.118 121.689 51.118 121.689 49.118 89.689 49.118"></polygon>
                    <path d="M25.689,82.1179 L57.689,82.1179" id="Fill-28" fill="#FFFFFF" mask="url(#mask-4)"></path>
                    <polygon id="Fill-29" fill="#132E99" mask="url(#mask-4)" points="25.689 83.118 57.689 83.118 57.689 81.118 25.689 81.118"></polygon>
                    <path d="M68.3557,130.1179 C68.3557,118.3359 77.9067,108.7849 89.6887,108.7849 C101.4707,108.7849 111.0227,118.3359 111.0227,130.1179 C111.0227,141.8999 101.4707,151.4509 89.6887,151.4509 C77.9067,151.4509 68.3557,141.8999 68.3557,130.1179" id="Fill-30" fill="#F92855" mask="url(#mask-4)"></path>
                    <path d="M90.2906,129.726 C90.6616,129.726 91.0096,129.652 91.3316,129.506 C91.6546,129.359 91.9336,129.159 92.1676,128.904 C92.4026,128.65 92.5886,128.362 92.7246,128.039 C92.8616,127.717 92.9306,127.379 92.9306,127.027 C92.9306,126.323 92.6816,125.703 92.1826,125.165 C91.6836,124.627 91.0526,124.358 90.2906,124.358 L88.1786,124.358 L88.1786,129.726 L90.2906,129.726 Z M83.4856,119.958 L90.3496,119.958 C91.3656,119.958 92.3096,120.144 93.1796,120.515 C94.0496,120.887 94.8026,121.391 95.4386,122.026 C96.0736,122.662 96.5726,123.41 96.9346,124.27 C97.2956,125.131 97.4766,126.05 97.4766,127.027 C97.4766,128.005 97.2956,128.925 96.9346,129.785 C96.5726,130.645 96.0736,131.393 95.4386,132.029 C94.8026,132.664 94.0496,133.168 93.1796,133.539 C92.3096,133.911 91.3656,134.096 90.3496,134.096 L88.1786,134.096 L88.1786,140.785 L83.4856,140.785 L83.4856,119.958 Z" id="Fill-31" fill="#FFFFFF" mask="url(#mask-4)"></path>
                    <polygon id="Fill-32" fill="#FFFFFF" mask="url(#mask-4)" points="80.355 138.118 91.022 138.118 91.022 135.451 80.355 135.451"></polygon>
                </g>
            </g>
        </g>
    </g>
</svg>

<svg width="192" height="193" viewBox="0 0 192 193" xmlns="http://www.w3.org/2000/svg" xmlns:xlink="http://www.w3.org/1999/xlink">
    <title>
        FAC7C642-1F87-45C9-96A8-85DA860E87CD
    </title>
    <defs>
        <path id="a" d="M0 0h1280v608H0z"/>
        <mask id="b" x="0" y="0" width="1280" height="608" fill="#fff">
            <use xlink:href="#a"/>
        </mask>
        <path id="c" d="M0 192h192V0H0z"/>
    </defs>
    <g fill="none" fill-rule="evenodd">
        <use mask="url(#b)" xlink:href="#a" transform="translate(-928 -128)" stroke="#142E99" stroke-width="24" fill="#FFF"/>
        <path fill="#FFF" d="M15.023 92.785h117.333V39.452H15.023z"/>
        <path d="M16.022 91.784h115.333V40.451H16.022v51.333zm-2 2h119.333V38.451H14.022v55.333z" fill="#132E99"/>
        <path d="M89.689 82.118h32-32z" fill="#FFF"/>
        <path fill="#132E99" d="M89.689 83.118h32v-2h-32z"/>
        <path d="M89.689 66.118c0 8.837-7.163 16-16 16s-16-7.163-16-16 7.163-16 16-16 16 7.163 16 16z" fill="#FFF"/>
        <path d="M73.689 51.118c-8.271 0-15 6.73-15 15 0 8.271 6.729 15 15 15s15-6.729 15-15c0-8.27-6.729-15-15-15m0 32c-9.374 0-17-7.626-17-17 0-9.374 7.626-17 17-17 9.374 0 17 7.626 17 17 0 9.374-7.626 17-17 17" fill="#132E99"/>
        <path d="M172.356 135.451h-69.333c-4.4 0-8-3.6-8-8v-48c0-4.4 3.6-8 8-8h69.333c4.4 0 8 3.6 8 8v48c0 4.4-3.6 8-8 8" fill="#FFF"/>
        <path d="M103.022 72.451c-3.86 0-7 3.141-7 7v48c0 3.86 3.14 7 7 7h69.334c3.86 0 7-3.14 7-7v-48c0-3.859-3.14-7-7-7h-69.334zm69.334 64h-69.334c-4.962 0-9-4.037-9-9v-48c0-4.963 4.038-9 9-9h69.334c4.962 0 9 4.037 9 9v48c0 4.963-4.038 9-9 9z" fill="#132E99"/>
        <path d="M153.689 119.451c0 5.891-4.776 10.667-10.667 10.667s-10.666-4.776-10.666-10.667c0-5.89 4.775-10.667 10.666-10.667s10.667 4.776 10.667 10.667" fill="#FFF"/>
        <path d="M143.023 109.784c-5.332 0-9.667 4.337-9.667 9.667s4.335 9.667 9.667 9.667c5.33 0 9.667-4.337 9.667-9.667s-4.338-9.667-9.667-9.667m0 21.334c-6.434 0-11.667-5.233-11.667-11.667s5.233-11.667 11.667-11.667c6.433 0 11.667 5.233 11.667 11.667s-5.234 11.667-11.667 11.667" fill="#132E99"/>
        <path d="M169.689 119.451c0 5.891-4.776 10.667-10.667 10.667s-10.666-4.776-10.666-10.667c0-5.89 4.775-10.667 10.666-10.667s10.667 4.776 10.667 10.667" fill="#FFF"/>
        <path d="M159.023 109.784c-5.332 0-9.667 4.337-9.667 9.667s4.335 9.667 9.667 9.667c5.33 0 9.667-4.337 9.667-9.667s-4.338-9.667-9.667-9.667m0 21.334c-6.434 0-11.667-5.233-11.667-11.667s5.233-11.667 11.667-11.667c6.433 0 11.667 5.233 11.667 11.667s-5.234 11.667-11.667 11.667" fill="#132E99"/>
        <mask id="d" fill="#fff">
            <use xlink:href="#c"/>
        </mask>
        <path fill="#FFF" mask="url(#d)" d="M95.023 98.118h85.333V87.451H95.023z"/>
        <path d="M96.022 97.118h83.333v-8.667H96.022v8.667zm-2 2h87.333V86.451H94.022v12.667z" fill="#132E99" mask="url(#d)"/>
        <path d="M25.689 50.118h32" fill="#FFF" mask="url(#d)"/>
        <path fill="#132E99" mask="url(#d)" d="M25.689 51.118h32v-2h-32z"/>
        <path d="M89.689 50.118h32" fill="#FFF" mask="url(#d)"/>
        <path fill="#132E99" mask="url(#d)" d="M89.689 51.118h32v-2h-32z"/>
        <path d="M25.689 82.118h32" fill="#FFF" mask="url(#d)"/>
        <path fill="#132E99" mask="url(#d)" d="M25.689 83.118h32v-2h-32z"/>
        <path d="M68.356 130.118c0-11.782 9.55-21.333 21.333-21.333 11.782 0 21.334 9.55 21.334 21.333 0 11.782-9.552 21.333-21.334 21.333s-21.333-9.551-21.333-21.333" fill="#F92855" mask="url(#d)"/>
        <path d="M90.29 129.726c.372 0 .72-.074 1.042-.22a2.56 2.56 0 0 0 .836-.602c.235-.254.42-.542.557-.865.137-.322.206-.66.206-1.012 0-.704-.25-1.324-.748-1.862-.5-.538-1.13-.807-1.892-.807h-2.112v5.368h2.112zm-6.804-9.768h6.864a7.141 7.141 0 0 1 5.089 2.068 6.965 6.965 0 0 1 1.496 2.244c.36.861.542 1.78.542 2.757 0 .978-.181 1.898-.542 2.758a6.965 6.965 0 0 1-1.496 2.244 7.106 7.106 0 0 1-2.26 1.51 7.124 7.124 0 0 1-2.83.557h-2.17v6.689h-4.693v-20.827z" fill="#FFF" mask="url(#d)"/>
        <path fill="#FFF" mask="url(#d)" d="M80.355 138.118h10.667v-2.667H80.355z"/>
    </g>
</svg>
